logos/optarc.svg

<?xml version="1.0" encoding="UTF-8"?>
<!DOCTYPE svg PUBLIC "-//W3C//DTD SVG 1.1//EN" "http://www.w3.org/Graphics/SVG/1.1/DTD/svg11.dtd">
<svg xmlns="http://www.w3.org/2000/svg" version="1.1" width="150px" height="153px" style="shape-rendering:geometricPrecision; text-rendering:geometricPrecision; image-rendering:optimizeQuality; fill-rule:evenodd; clip-rule:evenodd" xmlns:xlink="http://www.w3.org/1999/xlink">
<g><path style="opacity:1" fill="#fdfdfe" d="M -0.5,-0.5 C 49.5,-0.5 99.5,-0.5 149.5,-0.5C 149.5,50.5 149.5,101.5 149.5,152.5C 99.5,152.5 49.5,152.5 -0.5,152.5C -0.5,101.5 -0.5,50.5 -0.5,-0.5 Z"/></g>
<g><path style="opacity:1" fill="#9bcdff" d="M 64.5,4.5 C 66.924,4.19244 69.2573,4.52577 71.5,5.5C 46.2767,25.9177 28.4434,51.5844 18,82.5C 13.6483,94.719 9.81493,107.052 6.5,119.5C 4.90773,101.764 5.40773,84.0976 8,66.5C 15.6377,35.373 34.471,14.7063 64.5,4.5 Z"/></g>
<g><path style="opacity:1" fill="#9bcdff" d="M 73.5,4.5 C 93.105,6.0531 109.272,14.3864 122,29.5C 133.746,44.0589 140.413,60.7255 142,79.5C 142.833,92.8458 142.666,106.179 141.5,119.5C 135.61,96.3292 127.443,73.9958 117,52.5C 106.2,34.3648 92.5338,18.6982 76,5.5C 76.0914,22.948 74.758,40.2813 72,57.5C 67.1372,80.4149 54.9705,98.2483 35.5,111C 27.2218,116.317 18.2218,118.984 8.5,119C 33.8648,98.7716 51.6981,73.2716 62,42.5C 66.4607,29.9826 70.2941,17.316 73.5,4.5 Z"/></g>
<g><path style="opacity:1" fill="#a24674" d="M 13.5,129.5 C 25.6277,128.752 28.961,133.586 23.5,144C 12.0855,147.903 7.5855,144.07 10,132.5C 11.1451,131.364 12.3117,130.364 13.5,129.5 Z"/></g>
<g><path style="opacity:1" fill="#a34571" d="M 34.5,129.5 C 38.1817,129.335 41.8484,129.501 45.5,130C 48.9166,132.321 49.2499,134.988 46.5,138C 43.9373,139.079 41.2706,139.579 38.5,139.5C 39.4015,143.241 38.0681,145.241 34.5,145.5C 34.5,140.167 34.5,134.833 34.5,129.5 Z"/></g>
<g><path style="opacity:1" fill="#9b3669" d="M 60.5,144.5 C 60.5,140.167 60.5,135.833 60.5,131.5C 58.5,131.5 56.5,131.5 54.5,131.5C 56.5706,130.191 59.0706,129.525 62,129.5C 64.5,129.833 67,130.167 69.5,130.5C 67.604,131.466 65.604,131.799 63.5,131.5C 63.5,136.167 63.5,140.833 63.5,145.5C 62.209,145.737 61.209,145.404 60.5,144.5 Z"/></g>
<g><path style="opacity:1" fill="#9f3f6e" d="M 80.5,129.5 C 81.9778,129.238 83.3112,129.571 84.5,130.5C 87.3499,135.194 89.3499,140.194 90.5,145.5C 88.1852,143.642 85.5186,142.309 82.5,141.5C 81.1667,141.667 79.8333,141.833 78.5,142C 76.0072,146.705 74.8405,146.538 75,141.5C 76.5737,137.354 78.407,133.354 80.5,129.5 Z"/></g>
<g><path style="opacity:1" fill="#9c396a" d="M 98.5,129.5 C 102.514,129.334 106.514,129.501 110.5,130C 113.355,133.222 113.021,136.056 109.5,138.5C 110.145,139.646 110.978,140.646 112,141.5C 112.781,142.944 112.614,144.277 111.5,145.5C 108.976,143.81 106.976,141.643 105.5,139C 104.207,138.51 102.873,138.343 101.5,138.5C 101.5,140.833 101.5,143.167 101.5,145.5C 100.5,145.5 99.5,145.5 98.5,145.5C 98.5,140.167 98.5,134.833 98.5,129.5 Z"/></g>
<g><path style="opacity:1" fill="#a24673" d="M 123.5,129.5 C 126.518,129.335 129.518,129.502 132.5,130C 134.607,131.264 135.607,133.097 135.5,135.5C 133.18,134.276 130.847,132.942 128.5,131.5C 124.887,131.628 123.22,133.461 123.5,137C 123.009,140.535 124.509,142.369 128,142.5C 130.51,141.425 133.01,140.425 135.5,139.5C 135.548,142.292 134.215,144.125 131.5,145C 124.697,146.773 120.697,144.273 119.5,137.5C 119.782,134.269 121.115,131.602 123.5,129.5 Z"/></g>
<g><path style="opacity:1" fill="#fbf7f7" d="M 15.5,131.5 C 22.0303,131.243 24.197,134.243 22,140.5C 15.0858,144.504 12.0858,142.504 13,134.5C 14.045,133.627 14.8783,132.627 15.5,131.5 Z"/></g>
<g><path style="opacity:1" fill="#f6f0f5" d="M 38.5,131.5 C 40.1992,131.34 41.8659,131.506 43.5,132C 44.8333,133.333 44.8333,134.667 43.5,136C 41.8659,136.494 40.1992,136.66 38.5,136.5C 38.5,134.833 38.5,133.167 38.5,131.5 Z"/></g>
<g><path style="opacity:1" fill="#d0b9d9" d="M 54.5,131.5 C 56.5,131.5 58.5,131.5 60.5,131.5C 60.5,135.833 60.5,140.167 60.5,144.5C 59.5166,140.702 59.1832,136.702 59.5,132.5C 57.5853,132.784 55.9187,132.451 54.5,131.5 Z"/></g>
<g><path style="opacity:1" fill="#f3e6eb" d="M 101.5,131.5 C 103.527,131.338 105.527,131.505 107.5,132C 109.592,132.953 109.925,134.286 108.5,136C 106.19,136.497 103.857,136.663 101.5,136.5C 101.5,134.833 101.5,133.167 101.5,131.5 Z"/></g>
<g><path style="opacity:1" fill="#efe0e6" d="M 81.5,133.5 C 83.539,134.911 84.539,136.911 84.5,139.5C 82.712,139.785 81.0453,139.452 79.5,138.5C 80.4565,136.925 81.1231,135.258 81.5,133.5 Z"/></g>
</svg>

<svg xmlns="http://www.w3.org/2000/svg" width="150" height="153" style="shape-rendering:geometricPrecision;text-rendering:geometricPrecision;image-rendering:optimizeQuality;fill-rule:evenodd;clip-rule:evenodd"><path style="opacity:1" fill="#fdfdfe" d="M-.5-.5h150v153H-.5V-.5z"/><path style="opacity:1" fill="#9bcdff" d="M64.5 4.5a13.117 13.117 0 0 1 7 1C46.277 25.918 28.443 51.584 18 82.5a473.172 473.172 0 0 0-11.5 37 224.605 224.605 0 0 1 1.5-53c7.638-31.127 26.471-51.794 56.5-62zM73.5 4.5c19.605 1.553 35.772 9.886 48.5 25 11.746 14.559 18.413 31.225 20 50a267.196 267.196 0 0 1-.5 40 350.59 350.59 0 0 0-24.5-67c-10.8-18.135-24.466-33.802-41-47a317.708 317.708 0 0 1-4 52C67.137 80.415 54.97 98.248 35.5 111c-8.278 5.317-17.278 7.984-27 8C33.865 98.772 51.698 73.272 62 42.5a408.331 408.331 0 0 0 11.5-38z"/><path style="opacity:1" fill="#a24674" d="M13.5 129.5c12.128-.748 15.461 4.086 10 14.5-11.415 3.903-15.915.07-13.5-11.5a30.217 30.217 0 0 1 3.5-3z"/><path style="opacity:1" fill="#a34571" d="M34.5 129.5a60.93 60.93 0 0 1 11 .5c3.417 2.321 3.75 4.988 1 8a18.991 18.991 0 0 1-8 1.5c.901 3.741-.432 5.741-4 6v-16z"/><path style="opacity:1" fill="#9b3669" d="M60.5 144.5v-13h-6c2.07-1.309 4.57-1.975 7.5-2l7.5 1a9.86 9.86 0 0 1-6 1v14c-1.291.237-2.291-.096-3-1z"/><path style="opacity:1" fill="#9f3f6e" d="M80.5 129.5c1.478-.262 2.811.071 4 1a48.524 48.524 0 0 1 6 15c-2.315-1.858-4.981-3.191-8-4l-4 .5c-2.493 4.705-3.66 4.538-3.5-.5a97.937 97.937 0 0 1 5.5-12z"/><path style="opacity:1" fill="#9c396a" d="M98.5 129.5a72.367 72.367 0 0 1 12 .5c2.855 3.222 2.521 6.056-1 8.5a10.756 10.756 0 0 0 2.5 3c.781 1.444.614 2.777-.5 4a18.68 18.68 0 0 1-6-6.5 8.43 8.43 0 0 0-4-.5v7h-3v-16z"/><path style="opacity:1" fill="#a24673" d="M123.5 129.5a40.914 40.914 0 0 1 9 .5c2.107 1.264 3.107 3.097 3 5.5a123.204 123.204 0 0 1-7-4c-3.613.128-5.28 1.961-5 5.5-.491 3.535 1.009 5.369 4.5 5.5 2.51-1.075 5.01-2.075 7.5-3 .048 2.792-1.285 4.625-4 5.5-6.803 1.773-10.803-.727-12-7.5.282-3.231 1.615-5.898 4-8z"/><path style="opacity:1" fill="#fbf7f7" d="M15.5 131.5c6.53-.257 8.697 2.743 6.5 9-6.914 4.004-9.914 2.004-9-6a10.51 10.51 0 0 0 2.5-3z"/><path style="opacity:1" fill="#f6f0f5" d="M38.5 131.5c1.7-.16 3.366.006 5 .5 1.333 1.333 1.333 2.667 0 4-1.634.494-3.3.66-5 .5v-5z"/><path style="opacity:1" fill="#d0b9d9" d="M54.5 131.5h6v13c-.983-3.798-1.317-7.798-1-12-1.915.284-3.581-.049-5-1z"/><path style="opacity:1" fill="#f3e6eb" d="M101.5 131.5a18.453 18.453 0 0 1 6 .5c2.092.953 2.425 2.286 1 4-2.31.497-4.643.663-7 .5v-5z"/><path style="opacity:1" fill="#efe0e6" d="M81.5 133.5c2.039 1.411 3.039 3.411 3 6-1.788.285-3.455-.048-5-1a16.062 16.062 0 0 0 2-5z"/></svg>
